X: 1
T: Paddy On The Turnpike
T: The Bunch Of Keys
M: 4/4
L: 1/8
R: reel
K: Ador
EAAG ~A3B|cA~A2 eAcA|EGGF ~G3A|BGdG eGdG|
EAAG ~A3B|cBAB cdef|~g3e dBGB|1 cABG A3G:|2 cABG A3d||
|:eaag ~a3b|ca~a2 cabg|eggf ~g3a|bg~g2 bgag|
eaag ~a3b|cbag edef|~g3e dBGB|1 cABG A3d:|2 cABG A3G||
